X:1
T:Ach wunder schön Jungfrau
T:Gemignani Capilupi
T:Source : Canzonette mit 3 Stimmen/ H.Vecchi und G Capilupi---Nürnberg---P.Kauffmann---1606. Editor : André Vierendeels (23/02/17).
T:Notes : Original clefs :G2, G2, C4 Editorial accidentals above the staff Text Middle German by Valentin Hauszmann German Contrafactum of "Temerario Fetonte" 1597 m 11 in S2 : a quarter rest to mutch in original print
T:Ach wunder schön Jungfrau 
T:©
T:©
C:Gemignani Capilupi
Z:©
%%score [ 1 2 3 ]
L:1/8
Q:1/4=101
M:4/4
K:C
V:1 treble nm="Soprano 1" snm="S 1"
V:2 treble nm="Soprano 2" snm="S 2"
V:3 treble-8 nm="Tenor" snm="T"
V:1
"^1)" z2 ef g4 | f2 e2 d4 | d2 g2 a2 a2 | a2 a2 g4- | g2 f2 d2 c2 | d8 |[M:2/4] e4 :: %7
w: Ach wun- der|schön Jung- frau-|e, dasz ich mit|fleisz eur freund-|* lichs Gsicht an-|schau-|e,|
w: Ausz Lieb werd|ich be- wo-|gen, dasz ich mein|Augn und Hertz|_ auff euch ge-|so-|gen,|
[M:4/4] z4 z2 d2 | g2 f2 e2 d2 | c4 z2 e2 | g2 f2 e2 d2 | c2 c2 B2 c2- | c2 B2 c4 | g4 a4 | %14
w: dar-|ausz kein ar- ges|ihr, dar-|ausz kein ar- ges|ihr bald solt ver|_ mu- ten,|g'schits doch|
w: al-|so bin ich be-|stürzt durch|eu- re stra- len,|durch eu- re stra-|* * len,|gänz- lich|
 a4 g2 f2 | e2 dc B2 c2 | d6 c2 | B4 !fermata!A4 :| %18
w: in al- *||* lem|gu- ten.|
w: und ü- ber|al- * * * *||* len.|
V:2
"^2)""^1)" z2 cd e4 | A2 c2 B4 | B2 e2 f2 f2 | f2 f2 e3 d | c2 A2 B2 c2- | c2 BA B4 |[M:2/4] c4 :: %7
w: Ach wun- der|schön Jung- frau-|e, dasz ich mi|fleisz eur freund- lichs|Gsicht an- schau- *||e,|
w: Möcht ich kein|blos- sen stech-|en, umb eu- re|Lie be wolt ich|auch an- sprech- *||en,|
[M:4/4] e4 d4 | z2 d2 g3 f | e2 d2 c4 | z4 A4 | E2 F2 G2 FE | D4 E4 | e4 e4 | d4 e2 d2 | %15
w: dar- ausz,|dar- ausz kein|ar- ges ihr,|bald|solt ver- mu- * *|* ten,|g'schits doch|in al- *|
w: Wüszt ich,|wüszt ich, wüszt|ich dasz ihr,|mirs|nur nicht thet ver- *|sa- gen,|end- lich|will ichs doch|
"^#" c2 BA G2 A2 | B6 A2- | A2 ^G2 !fermata!A4 :| %18
w: |* lem|_ gu- ten.|
w: wa- * * * *||* * gen.|
V:3
"^3)""^1)""^4)" c2 c2 c4 | F2 C2 G4 | G2 G2 F3 G | A2 B2 c4- | c2 F2 G2 A2 | G8 |[M:2/4] C4 :: %7
w: Ach wun- der|schön Jung- frau-|e, dasz ich mit|freun- lichs Gsicht|_ an- schau- *||e,|
w: Kan ich denn|nichts er- hal-|ten, den lie- ben|Gott misz ich|_ es las- sen|wal-|ten,|
[M:4/4] c4 g4- | g2 d2 e2 B2 | c8 | G4 A4 | A4 G4- | G4 C2 c2 | c2 B2 A2 G2 | F4 E4 | E4 E4 | %16
w: dar- ausz|_ kein ar- ges|ihr|bald solt|ver- mu-|* ten, g'schits|doch in al- lem|gu- te,|in al-|
w: der weisz|_ mich auff ein|an-|dern Weg|zu brin-|* gen, da|das clück _ durch|wirdt drin-|ge, duch|
 D4 E4- | E4 !fermata!A4 :| %18
w: lem gu-|* ten.|
w: wirdt drin-|* gen.|

